emblems/scalable/rating-unrated.svg

<svg height="24" viewBox="0 0 24 24" width="24" xmlns="http://www.w3.org/2000/svg"><path d="m12.043993 1-3.4369275 7.2215-7.6070655 1.1385 5.466089 5.646667-1.3417764 7.949333 6.8170304-3.7345 6.776704 3.7785-1.253791-7.956667 5.535744-5.6136664-7.594234-1.1824999zm-.01467 3.6666666 2.238127 4.8308333 5.062823.7920001-3.684386 3.741833.834028 5.303833-4.514743-2.517166-4.5459085 2.487833.8945175-5.300167-3.6440593-3.7675 5.070155-.7553327z" fill="#4d4d4d" fill-opacity=".6"/></svg>

<?xml version="1.0" encoding="UTF-8" standalone="no"?>
<svg
   xmlns:dc="http://purl.org/dc/elements/1.1/"
   xmlns:cc="http://creativecommons.org/ns#"
   xmlns:rdf="http://www.w3.org/1999/02/22-rdf-syntax-ns#"
   xmlns:svg="http://www.w3.org/2000/svg"
   xmlns="http://www.w3.org/2000/svg"
   xmlns:sodipodi="http://sodipodi.sourceforge.net/DTD/sodipodi-0.dtd"
   xmlns:inkscape="http://www.inkscape.org/namespaces/inkscape"
   viewBox="0 0 24 24"
   id="svg4748"
   version="1.1"
   inkscape:version="0.91 r13725"
   sodipodi:docname="rating-unrated.svg"
   width="24"
   height="24">
  <metadata
     id="metadata4756">
    <rdf:RDF>
      <cc:Work
         rdf:about="">
        <dc:format>image/svg+xml</dc:format>
        <dc:type
           rdf:resource="http://purl.org/dc/dcmitype/StillImage" />
        <dc:title></dc:title>
      </cc:Work>
    </rdf:RDF>
  </metadata>
  <sodipodi:namedview
     pagecolor="#ffffff"
     bordercolor="#666666"
     borderopacity="1"
     objecttolerance="10"
     gridtolerance="10"
     guidetolerance="10"
     inkscape:pageopacity="0"
     inkscape:pageshadow="2"
     inkscape:window-width="640"
     inkscape:window-height="480"
     id="namedview4754"
     showgrid="false"
     inkscape:zoom="39.8125"
     inkscape:cx="3.5290424"
     inkscape:cy="8"
     inkscape:current-layer="svg4748" />
  <defs
     id="defs3051">
    <style
       type="text/css"
       id="current-color-scheme">
      .ColorScheme-Text {
        color:#4d4d4d;
      }
      </style>
  </defs>
  <path
     style="color:#4d4d4d;fill:currentColor;fill-opacity:0.6;stroke:none"
     d="M 12.043993,1 8.6070655,8.2215 1,9.36 6.466089,15.006667 5.1243126,22.956 11.941343,19.2215 18.718047,23 17.464256,15.043333 23,9.4296666 15.405766,8.2471667 Z m -0.01467,3.6666666 2.238127,4.8308333 5.062823,0.7920001 -3.684386,3.741833 0.834028,5.303833 L 11.965172,16.818 7.4192635,19.305833 8.313781,14.005666 4.6697217,10.238166 9.7398767,9.4828333 Z"
     class="ColorScheme-Text"
     id="path4752"
     inkscape:connector-curvature="0" />
</svg>
